X:001
T: Humours of Glen
N: O'Farrell's Pocket Companion v.1 (Sky ed. p.12)
D: O'Sullivan Meets O'Farrell track 14a
N: "Irish"
M: 6/8
L: 1/8
R: jig
Q: 300
K: Bm
F | B d/c/B/A/ BFF| Fdc DFF| B d/c/B/^A/ BFD| EF^A B3 |
B d/c/B/A/ BFF| d f/e/d/c/ dff| G A/G/F/E/ F G/F/E/D/| EFA B2 :|
A | Add d2 f/e/| d/c/d/e/f/g/ afd| gfe fdB| AFA B2 c/d/|
AFF BGG| AFd B/A/G/F/E/D/| AF d  B/A/G/F/E/D/| DFA B2 c/d/|
AFF dFF| AFd B/A/G/F/E/D/| gfe fdB | AFA B3 ||
